X:118
T:The Breas of Bushby
S:Anderson's Pocket Companion, Perth 1807 (Glen.42) p63
M:C|
L:1/8
K:A Minor
 E>AA>B (cB)(AG)  |D>GG>A  B>c     c/B/A/G/| A>Bc>d e>dc>e| d/c/B/A/     G/A/B/d/   (cA)A2:|
Tc2(e>c) g>ce>c   |B>dg>e  d/c/B/A/ G>A     |Tc2 e>c g>ce>c| d>BG>B                  (cA)A2:|
(a2e>a)  ea/b/ c'a|g2(d>g) dg/a/   bg      | a2(ea) e>dc>e|(d/c/)(B/a/) (G/e/)(B/d/) cA A2:|
c>eA>e  A/B/c/d/ f/e/d/c/|B>dG>d             G/A/B/c/ e/d/c/B/|\
c>eA>e  A/B/c/d/ f/e/d/c/|d>BG>B            (cA)(Ad)          |
c>eA>e  A>ce>c           |B>dG>B             G>Bd>B           |\
c>eg>c' g>ec>e           |d/c/B/A/ G/A/B/d/ (cA)      A2     |]

